public/google-icon.svg

<svg width="29" height="28" viewBox="0 0 29 28" fill="none" xmlns="http://www.w3.org/2000/svg">
<path d="M25.9296 11.7151H24.9898V11.6667H14.4898V16.3334H21.0832C20.1213 19.05 17.5366 21 14.4898 21C10.6241 21 7.4898 17.8658 7.4898 14C7.4898 10.1343 10.6241 7.00004 14.4898 7.00004C16.2742 7.00004 17.8976 7.67321 19.1337 8.77279L22.4336 5.47287C20.35 3.53096 17.5628 2.33337 14.4898 2.33337C8.04689 2.33337 2.82314 7.55712 2.82314 14C2.82314 20.443 8.04689 25.6667 14.4898 25.6667C20.9327 25.6667 26.1565 20.443 26.1565 14C26.1565 13.2178 26.076 12.4542 25.9296 11.7151Z" fill="#FBC02D"/>
<path d="M4.16822 8.56979L8.00131 11.3809C9.03847 8.81304 11.5503 7.00004 14.4897 7.00004C16.2741 7.00004 17.8976 7.67321 19.1336 8.77279L22.4336 5.47287C20.3499 3.53096 17.5627 2.33337 14.4897 2.33337C10.0086 2.33337 6.12239 4.86329 4.16822 8.56979Z" fill="#E53935"/>
<path d="M14.4899 25.6667C17.5034 25.6667 20.2415 24.5135 22.3118 22.638L18.701 19.5825C17.5296 20.4698 16.0736 21 14.4899 21C11.4554 21 8.87879 19.0651 7.90812 16.3649L4.10362 19.2961C6.03445 23.0744 9.95562 25.6667 14.4899 25.6667Z" fill="#4CAF50"/>
<path d="M25.9295 11.715L25.9202 11.6666H24.9898H14.4898V16.3333H21.0832C20.6212 17.6382 19.7818 18.7635 18.6991 19.583C18.6997 19.5825 18.7003 19.5825 18.7009 19.5819L22.3117 22.6374C22.0562 22.8695 26.1565 19.8333 26.1565 14C26.1565 13.2177 26.076 12.4541 25.9295 11.715Z" fill="#1565C0"/>
</svg>

<svg xmlns="http://www.w3.org/2000/svg" width="29" height="28" fill="none" xmlns:v="https://vecta.io/nano"><path d="M25.93 11.715h-.94v-.048h-10.5v4.667h6.593C20.121 19.05 17.537 21 14.49 21a7 7 0 0 1 0-14c1.784 0 3.408.673 4.644 1.773l3.3-3.3c-2.084-1.942-4.871-3.14-7.944-3.14A11.67 11.67 0 0 0 2.823 14 11.67 11.67 0 0 0 14.49 25.667 11.67 11.67 0 0 0 26.157 14c0-.782-.081-1.546-.227-2.285z" fill="#fbc02d"/><path d="M4.168 8.57l3.833 2.811C9.038 8.813 11.55 7 14.49 7c1.784 0 3.408.673 4.644 1.773l3.3-3.3c-2.084-1.942-4.871-3.14-7.944-3.14-4.481 0-8.367 2.53-10.321 6.236z" fill="#e53935"/><path d="M14.49 25.667c3.013 0 5.752-1.153 7.822-3.029l-3.611-3.056C17.53 20.47 16.074 21 14.49 21c-3.035 0-5.611-1.935-6.582-4.635l-3.804 2.931c1.931 3.778 5.852 6.371 10.386 6.371z" fill="#4caf50"/><path d="M25.93 11.715l-.009-.048h-.93-10.5v4.667h6.593c-.462 1.305-1.301 2.43-2.384 3.25l3.613 3.054c-.255.232 3.845-2.804 3.845-8.637a11.74 11.74 0 0 0-.227-2.285z" fill="#1565c0"/></svg>
